contribs/icons/conjugaison.svg

<?xml version="1.0" encoding="UTF-8" standalone="no"?>
<svg
   viewBox="0 0 192 192"
   version="1.1"
   id="svg3"
   sodipodi:docname="conjugaison.svg"
   inkscape:version="1.3.2 (091e20ef0f, 2023-11-25)"
   xmlns:inkscape="http://www.inkscape.org/namespaces/inkscape"
   xmlns:sodipodi="http://sodipodi.sourceforge.net/DTD/sodipodi-0.dtd"
   xmlns="http://www.w3.org/2000/svg"
   xmlns:svg="http://www.w3.org/2000/svg">
  <sodipodi:namedview
     id="namedview3"
     pagecolor="#ffffff"
     bordercolor="#000000"
     borderopacity="0.25"
     inkscape:showpageshadow="2"
     inkscape:pageopacity="0.0"
     inkscape:pagecheckerboard="0"
     inkscape:deskcolor="#d1d1d1"
     inkscape:zoom="1.3814314"
     inkscape:cx="106.04942"
     inkscape:cy="42.347378"
     inkscape:window-width="1890"
     inkscape:window-height="1022"
     inkscape:window-x="0"
     inkscape:window-y="0"
     inkscape:window-maximized="1"
     inkscape:current-layer="svg3" />
  <defs
     id="defs1">
    <style
       id="style1">.a{fill:none;stroke:#b1b5bd;stroke-linecap:round;stroke-linejoin:round;isolation:isolate;opacity:0.63;}</style>
  </defs>
  <path
     d="M 30,20 C 24.460006,20 20,24.460006 20,30 V 145.70508 H 70.666016 121.33203 172 V 30 c 0,-5.539994 -4.46001,-10 -10,-10 z"
     style="opacity:1;isolation:isolate;fill:#ffffff;stroke-linecap:round;stroke-linejoin:round;fill-opacity:1"
     id="path3" />
  <path
     d="M 121.33203,145.70508 V 172 h 0.002 v -26.29492 z"
     style="fill:#ba6561;stroke-width:2.09326;stroke-linecap:round;stroke-linejoin:round;paint-order:stroke fill markers"
     id="path11" />
  <path
     d="M 70.666016,145.70508 V 172 h 50.666014 v -26.29492 z"
     style="fill:#ffffff;stroke-width:2.09326;stroke-linecap:round;stroke-linejoin:round;paint-order:stroke fill markers"
     id="path10" />
  <path
     d="m 20,162 c 0,5.53999 4.460006,10 10,10 H 70.666016 V 145.70508 H 20 Z"
     style="fill:#728dbe;stroke-width:2.09326;stroke-linecap:round;stroke-linejoin:round;paint-order:stroke fill markers"
     id="path9" />
  <path
     d="M 121.33398,173.375 V 172 h -0.002 v 1.375 z"
     style="fill:#ba6561;stroke-width:2.09326;stroke-linecap:round;stroke-linejoin:round;paint-order:stroke fill markers"
     id="path6" />
  <path
     d="M 172,145.70508 H 121.33398 V 172 H 162 c 5.53999,0 10,-4.46001 10,-10 z"
     style="fill:#ba6561;stroke-width:2.09326;stroke-linecap:round;stroke-linejoin:round;paint-order:stroke fill markers"
     id="path4" />
  <text
     xml:space="preserve"
     style="font-size:56.3977px;line-height:88.8155px;font-family:Now;-inkscape-font-specification:'Now, Normal';opacity:1;fill:#0000ff;fill-opacity:1;stroke:none;stroke-width:8.4902;stroke-linecap:round;stroke-linejoin:round;paint-order:stroke fill markers"
     x="45.770821"
     y="105.9875"
     id="text11"><tspan
       sodipodi:role="line"
       id="tspan11"
       x="45.770821"
       y="105.9875"
       style="stroke-width:8.4902"><tspan
         style="fill:#71a372;fill-opacity:1"
         id="tspan12">v</tspan><tspan
         style="fill:#4a4a4a;fill-opacity:1"
         id="tspan14">t</tspan><tspan
         style="fill:#71a372;fill-opacity:1"
         id="tspan13">f</tspan><tspan
         style="fill:#4a4a4a;fill-opacity:1"
         id="tspan15">c</tspan></tspan></text>
</svg>

<?xml version="1.0" encoding="UTF-8"?>
<svg version="1.1" viewBox="0 0 192 192" xmlns="http://www.w3.org/2000/svg">
 <path d="m30 20c-5.54 0-10 4.46-10 10v115.71h152v-115.71c0-5.54-4.46-10-10-10z" style="fill:#fff;isolation:isolate;stroke-linecap:round;stroke-linejoin:round"/>
 <path d="m121.33 145.71v26.295h2e-3v-26.295z" style="fill:#ba6561;paint-order:stroke fill markers;stroke-linecap:round;stroke-linejoin:round;stroke-width:2.0933"/>
 <path d="m70.666 145.71v26.295h50.666v-26.295z" style="fill:#fff;paint-order:stroke fill markers;stroke-linecap:round;stroke-linejoin:round;stroke-width:2.0933"/>
 <path d="m20 162c0 5.54 4.46 10 10 10h40.666v-26.295h-50.666z" style="fill:#728dbe;paint-order:stroke fill markers;stroke-linecap:round;stroke-linejoin:round;stroke-width:2.0933"/>
 <path d="m121.33 173.38v-1.375h-2e-3v1.375z" style="fill:#ba6561;paint-order:stroke fill markers;stroke-linecap:round;stroke-linejoin:round;stroke-width:2.0933"/>
 <path d="m172 145.71h-50.666v26.295h40.666c5.54 0 10-4.46 10-10z" style="fill:#ba6561;paint-order:stroke fill markers;stroke-linecap:round;stroke-linejoin:round;stroke-width:2.0933"/>
 <text x="45.770821" y="105.9875" style="fill:#0000ff;font-family:Now;font-size:56.398px;line-height:88.8155px;paint-order:stroke fill markers;stroke-linecap:round;stroke-linejoin:round;stroke-width:8.4902" xml:space="preserve"><tspan x="45.770821" y="105.9875" style="stroke-width:8.4902"><tspan style="fill:#71a372">v</tspan><tspan style="fill:#56595b">t</tspan><tspan style="fill:#71a372">f</tspan><tspan style="fill:#56595b">c</tspan></tspan></text>
</svg>
